staging/svg/ahorro.svg

<?xml version="1.0" encoding="UTF-8"?>
<svg width="23px" height="48px" viewBox="0 0 23 48" version="1.1" xmlns="http://www.w3.org/2000/svg" xmlns:xlink="http://www.w3.org/1999/xlink">
    <!-- Generator: Sketch 55.2 (78181) - https://sketchapp.com -->
    <title>Path 2</title>
    <desc>Created with Sketch.</desc>
    <g id="final" stroke="none" stroke-width="1" fill="none" fill-rule="evenodd">
        <g id="mobile_V1" transform="translate(-176.000000, -2396.000000)" fill="#439417" fill-rule="nonzero">
            <g id="Path-2" transform="translate(176.000000, 2396.000000)">
                <path d="M13.0877139,22.4799097 C7.42618299,20.6215334 5.83653171,17.3448455 6.19605211,15.101321 C6.52042591,13.0694084 8.55014187,11.0162614 12.348171,11.0162614 C17.2379412,11.0162614 18.2711047,15.6512188 18.3736156,16.1974555 C18.6049974,17.4861641 19.893706,18.3179669 21.1172468,18.1136773 C22.4103487,17.8866888 23.1484273,16.6558257 22.922171,15.3656527 C22.4323153,12.5714983 20.2217409,7.56823382 14.3639747,6.48235043 L14.3639747,2.3731275 C14.3639747,1.06172011 13.4787198,0 12.1673124,0 C10.8551728,0 9.97065015,1.06172011 9.97065015,2.3731275 L9.97065015,6.49699484 C5.57732556,7.31927876 2.20691338,10.3206517 1.56329133,14.3529914 C0.91015041,18.4387833 3.13536931,24.199164 11.6349879,26.9889252 C16.1044635,28.4562956 18.5251853,30.805992 18.1312506,33.2808982 C17.7929646,35.4079995 15.2228697,37.6141807 11.5200293,37.6141807 C5.17533636,37.6141807 4.71989505,34.1610275 4.69499954,33.51228 C4.69499954,32.2008726 3.63254721,31.1398847 2.3204076,31.1398847 C1.00900021,31.1398847 -8.8817842e-15,32.2008726 -8.8817842e-15,33.51228 C-8.8817842e-15,36.3789242 1.91622174,41.6421271 9.97065015,42.2930714 L9.97065015,45.6268725 C9.97065015,46.9390121 10.8551728,48 12.1673124,48 C13.4787198,48 14.3639747,46.9390121 14.3639747,45.6268725 L14.3639747,41.9950575 C18.7572993,40.9699484 22.0676694,37.8836379 22.6805382,34.0262989 C22.9822131,32.1635293 23.2809592,25.821033 13.0877139,22.4799097 Z" id="Path"></path>
            </g>
        </g>
    </g>
</svg>

<svg xmlns="http://www.w3.org/2000/svg" width="23" height="48">
  <path fill="#439417" fill-rule="nonzero" d="M13.088 22.48c-5.662-1.858-7.251-5.135-6.892-7.379.324-2.032 2.354-4.085 6.152-4.085 4.89 0 5.923 4.635 6.026 5.181.231 1.29 1.52 2.121 2.743 1.917 1.293-.227 2.031-1.458 1.805-2.748-.49-2.795-2.7-7.798-8.558-8.884V2.373c0-1.311-.885-2.373-2.197-2.373S9.971 1.062 9.971 2.373v4.124c-4.394.822-7.764 3.824-8.408 7.856-.653 4.086 1.572 9.846 10.072 12.636 4.47 1.467 6.89 3.817 6.496 6.292-.338 2.127-2.908 4.333-6.611 4.333-6.345 0-6.8-3.453-6.825-4.102A2.372 2.372 0 0 0 2.32 31.14C1.01 31.14 0 32.2 0 33.512c0 2.867 1.916 8.13 9.97 8.781v3.334c0 1.312.885 2.373 2.197 2.373s2.197-1.061 2.197-2.373v-3.632c4.393-1.025 7.704-4.111 8.317-7.969.301-1.862.6-8.205-9.593-11.546z"/>
</svg>
